; generated by PrusaSlicer 2.9.2 on 2025-04-23 at 14:01:40 UTC


;
;

;
;

;
;

;
;

;
;
; 

; external perimeters extrusion width = 0.45mm
; perimeters extrusion width = 0.45mm
; infill extrusion width = 0.45mm
; solid infill extrusion width = 0.45mm
; top infill extrusion width = 0.42mm
; support material extrusion width = 0.36mm
; first layer extrusion width = 0.50mm

M73 P0 R69
M73 Q0 S81
M201 X4000 Y4000 Z200 E2500 ; sets maximum accelerations, mm/sec^2
M203 X300 Y300 Z40 E100 ; sets maximum feedrates, mm / sec
M204 P4000 R1200 T4000 ; sets acceleration (P, T) and retract acceleration (R), mm/sec^2
M205 X8.00 Y8.00 Z2.00 E10.00 ; sets the jerk limits, mm/sec
M205 S0 T0 ; sets the minimum extruding and travel feed rate, mm/sec

M486 S0
M486 Abottom
M486 S-1

;TYPE:Custom
M17 ; enable steppers
M862.1 P0.4 A0 F1 ; nozzle check
M862.3 P "MK4S" ; printer model check
M862.5 P2 ; g-code level check
M862.6 P"Input shaper" ; FW feature check
M115 U6.1.3+7898

M555 X93.95 Y40.55 W62.1 H124.9

G90 ; use absolute coordinates
M83 ; extruder relative mode

M140 S60 ; set bed temp
M104 T0 S170 ; set extruder temp for bed leveling
M109 T0 R170 ; wait for temp

M84 E ; turn off E motor

G28 ; home all without mesh bed level

G1 X42 Y-4 Z5 F4800

M302 S160 ; lower cold extrusion limit to 160C


G1 E-2 F2400 ; retraction


M84 E ; turn off E motor

G29 P9 X10 Y-4 W32 H4

M106 S100

G0 Z40 F10000

M190 S60 ; wait for bed temp

M107

;
; MBL
;
M84 E ; turn off E motor
G29 P1 ; invalidate mbl & probe print area
G29 P1 X0 Y0 W50 H20 C ; probe near purge place
G29 P3.2 ; interpolate mbl probes
G29 P3.13 ; extrapolate mbl outside probe area
G29 A ; activate mbl

; prepare for purge
M104 S230
G0 X0 Y-4 Z15 F4800 ; move away and ready for the purge
M109 S230

G92 E0
M569 S0 E ; set spreadcycle mode for extruder

;
; Extrude purge line
;
G92 E0 ; reset extruder position
G1 E2 F2400 ; deretraction after the initial one before nozzle cleaning
G0 E7 X15 Z0.2 F500 ; purge
G0 X25 E4 F500 ; purge
G0 X35 E4 F650 ; purge
G0 X45 E4 F800 ; purge
G0 X48 Z0.05 F8000 ; wipe, move close to the bed
G0 X51 Z0.2 F8000 ; wipe, move quickly away from the bed

G92 E0
M221 S100 ; set flow to 100%
G21 ; set units to millimeters
G90 ; use absolute coordinates
M83 ; use relative distances for extrusion
M572 S0.036 ; Filament gcode

M142 S36 ; set heatbreak target temp
M107
;LAYER_CHANGE
;Z:0.2
;HEIGHT:0.2
G1 E-.7 F2100
G1 Z.8 F720
M486 S0
G1 X151.736 Y68.802 F18000
G1 Z.2 F720
G1 E.7 F1500
M204 P500
;TYPE:Perimeter
;WIDTH:0.499999
G1 F2400
G1 X151.82 Y68.867 E.00404
G3 X151.957 Y69.279 I-.689 J.458 E.0167
G1 X151.957 Y140.721 E2.71524
G3 X151.82 Y141.133 I-.826 J-.046 E.0167
G1 X151.535 Y141.354 E.01371
G1 X151.271 Y141.407 E.01023
G1 X141.696 Y141.407 E.36391
G1 X98.729 Y141.407 E1.63302
G1 X98.465 Y141.354 E.01023
G1 X98.18 Y141.133 E.01371
G1 X98.053 Y140.84 E.01214
G1 X98.043 Y140.721 E.00454
G1 X98.043 Y69.279 E2.71524
G3 X98.18 Y68.867 I.826 J.046 E.0167
G1 X98.465 Y68.646 E.01371
G1 X98.729 Y68.593 E.01023
G1 X151.271 Y68.593 E1.99693
G1 X151.535 Y68.646 E.01023
G1 X151.688 Y68.765 E.00737
M204 P4000
M204 T4000
G1 X151.438 Y69.131 F18000
M204 P500
;TYPE:External perimeter
G1 F2400
G3 X151.5 Y69.279 I-.184 J.165 E.00621
G1 X151.5 Y140.721 E2.71524
G1 X151.454 Y140.859 E.00553
G3 X151.271 Y140.95 I-.262 J-.296 E.00786
G1 X141.696 Y140.95 E.36391
G1 X98.729 Y140.95 E1.63302
G1 X98.591 Y140.904 E.00553
G1 X98.503 Y140.761 E.00638
G1 X98.5 Y69.279 E2.71676
G1 X98.546 Y69.141 E.00553
G3 X98.729 Y69.05 I.262 J.296 E.00786
G1 X151.271 Y69.05 E1.99693
G3 X151.392 Y69.092 I-.017 J.246 E.00492
M204 P4000
G1 X151.491 Y69.479 F18000
G1 E-.7 F2100
G1 X148.043 Y95.774 Z.663 F18000
G1 X147.532 Y99.668 Z.723
G1 X147.022 Y103.562 Z.766
G1 X146 Y111.35 Z.8
G1 X141.469 Y145.904
G1 Z.2 F720
G1 E.7 F1500
M204 P500
;TYPE:Perimeter
G1 F2400
G1 X141.4 Y145.846 E.00343
G1 X141.142 Y145.5 E.0164
G1 X140.942 Y145.02 E.01976
G1 X140.877 Y144.403 E.02358
G1 X140.968 Y143.888 E.01988
G1 X141.19 Y143.414 E.01989
G1 X141.527 Y143.013 E.01991
G1 X141.956 Y142.713 E.0199
G1 X142.448 Y142.535 E.01989
G1 X142.97 Y142.49 E.01991
G1 X143.485 Y142.581 E.01988
G1 X143.959 Y142.803 E.01989
G1 X144.36 Y143.14 E.01991
G1 X144.66 Y143.569 E.0199
G1 X144.838 Y144.061 E.01989
G1 X144.883 Y144.582 E.01987
G1 X144.792 Y145.098 E.01991
G1 X144.57 Y145.572 E.01989
G1 X144.233 Y145.973 E.01991
G1 X143.804 Y146.272 E.01987
G1 X143.312 Y146.451 E.0199
G1 X142.791 Y146.496 E.01987
G1 X142.275 Y146.405 E.01991
G1 X141.801 Y146.183 E.01989
G1 X141.515 Y145.943 E.01419
M204 P4000
G1 X141.787 Y145.587 F18000
M204 P500
;TYPE:External perimeter
G1 F2400
G1 X141.763 Y145.568 E.00116
G1 X141.537 Y145.27 E.01421
G1 X141.375 Y144.865 E.01658
G1 X141.33 Y144.463 E.01537
G1 X141.391 Y144.063 E.01538
G1 X141.553 Y143.692 E.01539
G1 X141.805 Y143.376 E.01536
G1 X142.131 Y143.136 E.01539
G1 X142.508 Y142.988 E.01539
G1 X142.91 Y142.943 E.01537
G1 X143.31 Y143.004 E.01538
G1 X143.681 Y143.166 E.01539
G1 X143.997 Y143.418 E.01536
G1 X144.237 Y143.744 E.01539
G1 X144.385 Y144.121 E.01539
G1 X144.43 Y144.523 E.01537
G1 X144.37 Y144.923 E.01537
G1 X144.208 Y145.294 E.01539
G1 X143.955 Y145.61 E.01539
G1 X143.629 Y145.85 E.01539
G1 X143.252 Y145.998 E.01539
G1 X142.85 Y146.043 E.01537
G1 X142.45 Y145.982 E.01538
G1 X142.079 Y145.82 E.01539
G1 X141.834 Y145.624 E.01192
M204 P4000
G1 X141.577 Y145.318 F18000
G1 E-.7 F2100
G1 X122.687 Y158.88 Z.606 F18000
G1 Z.2 F720
G1 E.7 F1500
M204 P500
;TYPE:Perimeter
G1 F2400
G1 X122.874 Y158.376 E.02043
G1 X123.183 Y157.935 E.02047
G3 X123.764 Y157.433 I2.104 J1.848 E.02927
G1 X124.292 Y157.202 E.0219
G1 X124.911 Y157.097 E.02386
G1 X125.536 Y157.156 E.02386
G1 X126.124 Y157.374 E.02383
G1 X126.636 Y157.737 E.02385
G1 X127.036 Y158.221 E.02386
G1 X127.298 Y158.792 E.02388
G1 X127.403 Y159.411 E.02386
G1 X127.344 Y160.036 E.02386
G1 X127.126 Y160.624 E.02383
G1 X126.763 Y161.136 E.02385
G1 X126.279 Y161.536 E.02386
G1 X125.708 Y161.798 E.02388
G1 X125.089 Y161.903 E.02386
G1 X124.464 Y161.844 E.02386
G1 X123.876 Y161.626 E.02383
G1 X123.364 Y161.263 E.02385
G1 X122.964 Y160.779 E.02386
G1 X122.702 Y160.208 E.02388
G1 X122.597 Y159.589 E.02386
G1 X122.656 Y158.964 E.02386
G1 X122.666 Y158.936 E.00113
M204 P4000
G1 X123.12 Y158.996 F18000
M204 P500
;TYPE:External perimeter
G1 F2400
G1 X123.296 Y158.551 E.01819
G1 X123.6 Y158.142 E.01937
G1 X123.999 Y157.826 E.01934
G1 X124.466 Y157.624 E.01934
G1 X124.97 Y157.55 E.01936
G1 X125.476 Y157.609 E.01936
G1 X125.949 Y157.796 E.01933
G1 X126.358 Y158.1 E.01937
G1 X126.674 Y158.499 E.01934
G1 X126.876 Y158.966 E.01934
G1 X126.95 Y159.47 E.01936
G1 X126.891 Y159.976 E.01936
G1 X126.704 Y160.449 E.01933
G1 X126.4 Y160.858 E.01937
G1 X126.001 Y161.174 E.01934
G1 X125.534 Y161.376 E.01934
G1 X125.03 Y161.45 E.01936
G1 X124.524 Y161.391 E.01936
G1 X124.051 Y161.204 E.01933
G1 X123.642 Y160.9 E.01937
G1 X123.326 Y160.501 E.01934
G1 X123.124 Y160.034 E.01934
G1 X123.05 Y159.53 E.01936
G1 X123.105 Y159.054 E.01821
M204 P4000
G1 X123.247 Y158.679 F18000
G1 E-.7 F2100
G1 X105.092 Y145.009 Z.597 F18000
G1 Z.2 F720
G1 E.7 F1500
M204 P500
;TYPE:Perimeter
G1 F2400
G1 X105.017 Y144.582 E.01648
G1 X105.062 Y144.061 E.01987
G1 X105.24 Y143.569 E.01989
G1 X105.54 Y143.14 E.0199
G1 X105.941 Y142.803 E.01991
G1 X106.415 Y142.581 E.01989
G1 X106.93 Y142.49 E.01988
G1 X107.452 Y142.535 E.01991
G1 X107.944 Y142.713 E.01989
G1 X108.373 Y143.013 E.0199
G1 X108.71 Y143.414 E.01991
G1 X108.932 Y143.888 E.01989
G1 X109.023 Y144.403 E.01988
G1 X108.978 Y144.925 E.01991
G1 X108.799 Y145.417 E.0199
G1 X108.5 Y145.846 E.01987
G1 X108.099 Y146.183 E.01991
G1 X107.625 Y146.405 E.01989
G1 X107.109 Y146.496 E.01991
G1 X106.588 Y146.451 E.01987
G1 X106.096 Y146.272 E.0199
G1 X105.667 Y145.973 E.01987
G1 X105.33 Y145.572 E.01991
G1 X105.108 Y145.098 E.01989
G1 X105.103 Y145.068 E.00116
M204 P4000
G1 X105.526 Y144.894 F18000
M204 P500
;TYPE:External perimeter
G1 F2400
G1 X105.515 Y144.865 E.00118
G1 X105.47 Y144.463 E.01537
G1 X105.53 Y144.063 E.01537
G1 X105.692 Y143.692 E.01539
G1 X105.945 Y143.376 E.01539
G1 X106.271 Y143.136 E.01539
G1 X106.59 Y143.004 E.01312
G1 X107.05 Y142.943 E.01764
G1 X107.45 Y143.004 E.01538
G1 X107.821 Y143.166 E.01539
G1 X108.137 Y143.418 E.01536
G1 X108.377 Y143.744 E.01539
G1 X108.525 Y144.121 E.01539
G1 X108.57 Y144.523 E.01537
G1 X108.479 Y144.995 E.01827
G1 X108.347 Y145.294 E.01242
G1 X108.095 Y145.61 E.01536
G1 X107.769 Y145.85 E.01539
G1 X107.392 Y145.998 E.01539
G1 X106.99 Y146.043 E.01537
G1 X106.59 Y145.982 E.01538
G1 X106.219 Y145.82 E.01539
G1 X105.903 Y145.568 E.01536
G1 X105.663 Y145.242 E.01539
G1 X105.548 Y144.949 E.01196
M204 P4000
G1 X105.483 Y144.555 F18000
G1 E-.7 F2100
G1 X106.564 Y118.058 Z.663 F18000
G1 X106.724 Y114.133 Z.723
G1 X106.884 Y110.209 Z.766
G1 X107.204 Y102.361 Z.8
G1 X108.748 Y64.51
G1 Z.2 F720
G1 E.7 F1500
M204 P500
;TYPE:Perimeter
G1 F2400
G1 X108.932 Y64.902 E.01646
G1 X109.023 Y65.418 E.01991
G1 X108.978 Y65.939 E.01987
G1 X108.799 Y66.431 E.0199
G1 X108.5 Y66.86 E.01987
G1 X108.099 Y67.197 E.01991
G1 X107.625 Y67.419 E.01989
G1 X107.109 Y67.51 E.01991
G1 X106.588 Y67.465 E.01987
G1 X106.096 Y67.287 E.01989
G1 X105.667 Y66.987 E.0199
G1 X105.33 Y66.586 E.01991
G1 X105.108 Y66.112 E.01989
G1 X105.017 Y65.597 E.01988
G1 X105.062 Y65.075 E.01991
G1 X105.24 Y64.583 E.01989
G1 X105.54 Y64.154 E.0199
G1 X105.941 Y63.817 E.01991
G1 X106.415 Y63.595 E.01989
G1 X106.93 Y63.504 E.01988
G1 X107.452 Y63.549 E.01991
G1 X107.944 Y63.728 E.0199
G1 X108.373 Y64.027 E.01987
G1 X108.71 Y64.428 E.01991
G1 X108.723 Y64.455 E.00114
M204 P4000
G1 X108.359 Y64.733 F18000
M204 P500
;TYPE:External perimeter
G1 F2400
G1 X108.377 Y64.758 E.00117
G1 X108.525 Y65.135 E.01539
G1 X108.57 Y65.477 E.01311
G1 X108.509 Y65.937 E.01764
G1 X108.347 Y66.308 E.01539
G1 X108.095 Y66.624 E.01536
G1 X107.769 Y66.864 E.01539
G1 X107.392 Y67.012 E.01539
G1 X106.99 Y67.057 E.01537
G1 X106.59 Y66.996 E.01538
G1 X106.219 Y66.834 E.01539
G1 X105.903 Y66.582 E.01536
G1 X105.663 Y66.256 E.01539
G1 X105.515 Y65.879 E.01539
G1 X105.47 Y65.477 E.01537
G1 X105.53 Y65.077 E.01537
G1 X105.692 Y64.706 E.01539
G1 X105.945 Y64.39 E.01539
G1 X106.271 Y64.15 E.01539
G1 X106.648 Y64.002 E.01539
G1 X107.05 Y63.957 E.01537
G1 X107.45 Y64.018 E.01538
G1 X107.821 Y64.18 E.01539
G1 X108.137 Y64.432 E.01536
G1 X108.324 Y64.685 E.01196
M204 P4000
G1 X108.488 Y65.05 F18000
G1 E-.7 F2100
G1 X123.803 Y48.426 Z.595 F18000
G1 Z.2 F720
G1 E.7 F1500
M204 P500
;TYPE:Perimeter
G1 F2400
G1 X124.292 Y48.202 E.02044
G1 X124.911 Y48.097 E.02386
G1 X125.536 Y48.156 E.02386
G1 X126.124 Y48.374 E.02383
G1 X126.636 Y48.737 E.02385
G1 X127.036 Y49.221 E.02386
G1 X127.298 Y49.792 E.02388
G1 X127.403 Y50.411 E.02386
G1 X127.344 Y51.036 E.02386
G1 X127.126 Y51.624 E.02383
G1 X126.817 Y52.065 E.02047
G3 X126.236 Y52.567 I-2.104 J-1.848 E.02927
G1 X125.708 Y52.798 E.0219
G1 X125.089 Y52.903 E.02386
G1 X124.464 Y52.844 E.02386
G1 X123.876 Y52.626 E.02383
G1 X123.364 Y52.263 E.02385
G1 X122.964 Y51.779 E.02386
G1 X122.702 Y51.208 E.02388
G1 X122.597 Y50.589 E.02386
G1 X122.656 Y49.964 E.02386
G1 X122.874 Y49.376 E.02383
G1 X123.237 Y48.864 E.02385
G1 X123.721 Y48.464 E.02386
G1 X123.748 Y48.451 E.00114
M204 P4000
G1 X124.027 Y48.814 F18000
M204 P500
;TYPE:External perimeter
G1 F2400
G1 X124.467 Y48.624 E.01822
G1 X124.97 Y48.55 E.01932
G1 X125.476 Y48.609 E.01936
G1 X125.949 Y48.796 E.01933
G1 X126.358 Y49.1 E.01937
G1 X126.674 Y49.499 E.01934
G1 X126.876 Y49.966 E.01934
G1 X126.95 Y50.47 E.01936
G1 X126.891 Y50.976 E.01936
G1 X126.704 Y51.449 E.01933
G1 X126.4 Y51.858 E.01937
G1 X126.001 Y52.174 E.01934
G1 X125.533 Y52.376 E.01937
G1 X125.03 Y52.45 E.01932
G1 X124.524 Y52.391 E.01936
G1 X124.051 Y52.204 E.01933
G1 X123.642 Y51.9 E.01937
G1 X123.326 Y51.501 E.01934
G1 X123.124 Y51.034 E.01934
G1 X123.05 Y50.53 E.01936
G1 X123.109 Y50.024 E.01936
G1 X123.296 Y49.551 E.01933
G1 X123.6 Y49.142 E.01937
G1 X123.976 Y48.845 E.01821
M204 P4000
G1 X124.34 Y48.68 F18000
G1 E-.7 F2100
G1 X143.878 Y63.779 Z.631 F18000
G1 Z.2 F720
G1 E.7 F1500
M204 P500
;TYPE:Perimeter
G1 F2400
G1 X143.959 Y63.817 E.0034
G1 X144.36 Y64.154 E.01991
G1 X144.66 Y64.583 E.0199
G1 X144.838 Y65.075 E.01989
G1 X144.883 Y65.597 E.01991
G1 X144.792 Y66.112 E.01988
G1 X144.57 Y66.586 E.01989
G1 X144.233 Y66.987 E.01991
G1 X143.804 Y67.287 E.0199
G1 X143.312 Y67.465 E.01989
G1 X142.791 Y67.51 E.01987
G1 X142.275 Y67.419 E.01991
G1 X141.801 Y67.197 E.01989
G1 X141.4 Y66.86 E.01991
G1 X141.101 Y66.431 E.01987
G1 X140.922 Y65.939 E.0199
G1 X140.877 Y65.418 E.01987
G1 X140.968 Y64.902 E.01991
G1 X141.19 Y64.428 E.01989
G1 X141.527 Y64.027 E.01991
G1 X141.956 Y63.728 E.01987
G1 X142.448 Y63.549 E.0199
G1 X142.97 Y63.504 E.01991
G1 X143.485 Y63.595 E.01988
G1 X143.823 Y63.753 E.01418
M204 P4000
G1 X143.653 Y64.167 F18000
M204 P500
;TYPE:External perimeter
G1 F2400
G1 X143.681 Y64.18 E.00117
G1 X143.997 Y64.432 E.01536
G1 X144.237 Y64.758 E.01539
G1 X144.385 Y65.135 E.01539
G1 X144.43 Y65.537 E.01537
G1 X144.37 Y65.937 E.01537
G1 X144.208 Y66.308 E.01539
G1 X143.955 Y66.624 E.01539
G1 X143.629 Y66.864 E.01539
G1 X143.252 Y67.012 E.01539
G1 X142.85 Y67.057 E.01537
G1 X142.45 Y66.996 E.01538
G1 X142.079 Y66.834 E.01539
G1 X141.763 Y66.582 E.01536
G1 X141.523 Y66.256 E.01539
G1 X141.375 Y65.879 E.01539
G1 X141.33 Y65.477 E.01537
G1 X141.421 Y65.003 E.01834
G1 X141.553 Y64.706 E.01235
G1 X141.805 Y64.39 E.01536
G1 X142.131 Y64.15 E.01539
G1 X142.508 Y64.002 E.01539
G1 X142.91 Y63.957 E.01537
G1 X143.31 Y64.018 E.01538
G1 X143.598 Y64.143 E.01193
M204 P4000
G1 X143.923 Y64.377 F18000
G1 E-.7 F2100
G1 X141.371 Y90.773 Z.663 F18000
G1 X140.993 Y94.682 Z.723
G1 X140.615 Y98.591 Z.766
G1 X139.859 Y106.409 Z.8
G1 X135.278 Y153.795
G1 Z.2 F720
G1 E.7 F1500
M204 P500
;TYPE:Perimeter
G1 F2400
G1 X135.144 Y153.942 E.00756
G1 X135.057 Y154.237 E.01169
G1 X134.968 Y155.71 E.05609
G1 X134.749 Y156.903 E.0461
G1 X134.389 Y158.061 E.04609
G1 X133.891 Y159.166 E.04606
G1 X133.264 Y160.204 E.04609
G1 X132.516 Y161.159 E.0461
G1 X131.659 Y162.016 E.04606
G1 X130.704 Y162.764 E.0461
G1 X129.666 Y163.391 E.04609
G1 X128.561 Y163.889 E.04606
G1 X127.403 Y164.249 E.04609
G1 X126.21 Y164.468 E.0461
G1 X125 Y164.541 E.04607
G1 X123.79 Y164.468 E.04607
G1 X122.597 Y164.249 E.0461
G1 X121.439 Y163.889 E.04609
G1 X120.334 Y163.391 E.04606
G1 X119.296 Y162.764 E.04609
G1 X118.341 Y162.016 E.0461
G1 X117.484 Y161.159 E.04606
G1 X116.736 Y160.204 E.0461
G1 X116.109 Y159.166 E.04609
G1 X115.611 Y158.061 E.04606
G1 X115.251 Y156.903 E.04609
G1 X115.032 Y155.71 E.0461
G1 X114.943 Y154.237 E.05609
G1 X114.905 Y154.05 E.00725
G1 X114.756 Y153.806 E.01087
G1 X114.517 Y153.643 E.01099
G1 X114.259 Y153.593 E.00999
G1 X96.09 Y153.593 E.69054
G3 X95.407 Y153.44 I.105 J-2.064 E.02673
G1 X95.097 Y153.155 E.016
G1 X94.902 Y152.781 E.01603
G1 X94.857 Y152.441 E.01303
G1 X94.857 Y57.64 E3.60303
G3 X95.01 Y56.957 I2.064 J.105 E.02673
G1 X95.295 Y56.647 E.016
G1 X95.669 Y56.452 E.01603
G1 X96.009 Y56.407 E.01303
G1 X113.462 Y56.407 E.66332
G1 X114.366 Y56.399 E.03436
G1 X114.649 Y56.285 E.0116
G1 X114.856 Y56.058 E.01168
G1 X114.943 Y55.763 E.01169
G1 X115.032 Y54.29 E.05609
G1 X115.251 Y53.097 E.0461
G1 X115.611 Y51.939 E.04609
G1 X116.109 Y50.834 E.04606
G1 X116.736 Y49.796 E.04609
G1 X117.484 Y48.841 E.0461
G1 X118.341 Y47.984 E.04606
G1 X119.296 Y47.236 E.0461
G1 X120.334 Y46.609 E.04609
G1 X121.439 Y46.111 E.04606
G1 X122.597 Y45.751 E.04609
G1 X123.788 Y45.532 E.04602
G1 X125.052 Y45.462 E.04811
G1 X126.21 Y45.532 E.04409
G1 X127.403 Y45.751 E.0461
G1 X128.561 Y46.111 E.04609
G1 X129.666 Y46.609 E.04606
G1 X130.704 Y47.236 E.04609
G1 X131.659 Y47.984 E.0461
G1 X132.516 Y48.841 E.04606
G1 X133.264 Y49.796 E.0461
G1 X133.891 Y50.834 E.04609
G1 X134.389 Y51.939 E.04606
G1 X134.749 Y53.097 E.04609
G1 X134.968 Y54.29 E.0461
G1 X135.057 Y55.763 E.05609
G1 X135.095 Y55.95 E.00725
G1 X135.243 Y56.192 E.01078
G1 X135.477 Y56.354 E.01082
G1 X135.742 Y56.407 E.01027
