; generated by PrusaSlicer 2.9.2 on 2025-04-23 at 14:03:02 UTC


;
;

;
;

;
;

;
;

;
;
; 

; external perimeters extrusion width = 0.45mm
; perimeters extrusion width = 0.45mm
; infill extrusion width = 0.45mm
; solid infill extrusion width = 0.45mm
; top infill extrusion width = 0.42mm
; support material extrusion width = 0.36mm
; first layer extrusion width = 0.50mm

M73 P0 R21
M73 Q0 S26
M201 X4000 Y4000 Z200 E2500 ; sets maximum accelerations, mm/sec^2
M203 X300 Y300 Z40 E100 ; sets maximum feedrates, mm / sec
M204 P4000 R1200 T4000 ; sets acceleration (P, T) and retract acceleration (R), mm/sec^2
M205 X8.00 Y8.00 Z2.00 E10.00 ; sets the jerk limits, mm/sec
M205 S0 T0 ; sets the minimum extruding and travel feed rate, mm/sec

M486 S0
M486 Atop
M486 S-1

;TYPE:Custom
M17 ; enable steppers
M862.1 P0.4 A0 F1 ; nozzle check
M862.3 P "MK4S" ; printer model check
M862.5 P2 ; g-code level check
M862.6 P"Input shaper" ; FW feature check
M115 U6.1.3+7898

M555 X93.95 Y51.5 W62.1 H103

G90 ; use absolute coordinates
M83 ; extruder relative mode

M140 S60 ; set bed temp
M104 T0 S170 ; set extruder temp for bed leveling
M109 T0 R170 ; wait for temp

M84 E ; turn off E motor

G28 ; home all without mesh bed level

G1 X42 Y-4 Z5 F4800

M302 S160 ; lower cold extrusion limit to 160C


G1 E-2 F2400 ; retraction


M84 E ; turn off E motor

G29 P9 X10 Y-4 W32 H4

M106 S100

G0 Z40 F10000

M190 S60 ; wait for bed temp

M107

;
; MBL
;
M84 E ; turn off E motor
G29 P1 ; invalidate mbl & probe print area
G29 P1 X0 Y0 W50 H20 C ; probe near purge place
G29 P3.2 ; interpolate mbl probes
G29 P3.13 ; extrapolate mbl outside probe area
G29 A ; activate mbl

; prepare for purge
M104 S230
G0 X0 Y-4 Z15 F4800 ; move away and ready for the purge
M109 S230

G92 E0
M569 S0 E ; set spreadcycle mode for extruder

;
; Extrude purge line
;
G92 E0 ; reset extruder position
G1 E2 F2400 ; deretraction after the initial one before nozzle cleaning
G0 E7 X15 Z0.2 F500 ; purge
G0 X25 E4 F500 ; purge
G0 X35 E4 F650 ; purge
G0 X45 E4 F800 ; purge
M73 Q0 S25
G0 X48 Z0.05 F8000 ; wipe, move close to the bed
G0 X51 Z0.2 F8000 ; wipe, move quickly away from the bed

G92 E0
M221 S100 ; set flow to 100%
G21 ; set units to millimeters
G90 ; use absolute coordinates
M83 ; use relative distances for extrusion
M572 S0.036 ; Filament gcode

M142 S36 ; set heatbreak target temp
M107
;LAYER_CHANGE
;Z:0.2
;HEIGHT:0.2
G1 E-.7 F2100
G1 Z.8 F720
M486 S0
G1 X132.25 Y151.89 F18000
G1 Z.2 F720
G1 E.7 F1500
M204 P500
;TYPE:Support material
;WIDTH:0.5
G1 F2400
G1 X117.75 Y151.89 E.55109
G1 X117.75 Y151.11 E.02964
G1 X132.25 Y151.11 E.55109
G1 X132.25 Y151.821 E.02702
M204 P4000
G1 E-.7 F2100
M204 T4000
G1 X149.723 Y131.873 Z.663 F18000
G1 X152.311 Y128.918 Z.723
G1 X153.44 Y127.629 Z.744
G1 Z.2 F720
G1 E.7 F1500
M204 P500
G1 F2400
G1 X149.007 Y127.629 E.16848
G1 X149.007 Y126.849 E.02964
G1 X153.44 Y126.849 E.16848
G1 X153.44 Y127.561 E.02706
M204 P4000
G1 E-.7 F2100
G1 X153.44 Y123.586 Z.269 F18000
G1 Z.2 F720
G1 E.7 F1500
M204 P500
G1 F2400
G1 X149.007 Y123.586 E.16848
G1 X149.007 Y122.806 E.02964
G1 X153.44 Y122.806 E.16848
G1 X153.44 Y123.517 E.02702
M204 P4000
G1 E-.7 F2100
G1 X153.44 Y96.998 Z.663 F18000
G1 X153.44 Y93.071 Z.723
G1 X153.44 Y89.143 Z.766
G1 X153.44 Y87.194 Z.781
G1 Z.2 F720
G1 E.7 F1500
M204 P500
G1 F2400
G1 X149.007 Y87.194 E.16848
G1 X149.007 Y86.414 E.02964
G1 X153.44 Y86.414 E.16848
G1 X153.44 Y87.126 E.02706
M204 P4000
G1 E-.7 F2100
G1 X153.44 Y83.151 Z.269 F18000
G1 Z.2 F720
G1 E.7 F1500
M204 P500
G1 F2400
G1 X149.007 Y83.151 E.16848
G1 X149.007 Y82.371 E.02964
G1 X153.44 Y82.371 E.16848
G1 X153.44 Y83.082 E.02702
M204 P4000
G1 E-.7 F2100
G1 X135.967 Y63.133 Z.663 F18000
G1 X133.379 Y60.179 Z.723
G1 X132.25 Y58.89 Z.744
G1 Z.2 F720
M73 P1 R21
G1 E.7 F1500
M204 P500
G1 F2400
G1 X117.75 Y58.89 E.55109
G1 X117.75 Y58.11 E.02964
G1 X132.25 Y58.11 E.55109
G1 X132.25 Y58.821 E.02702
M204 P4000
G1 E-.7 F2100
G1 X111.323 Y75.11 Z.663 F18000
G1 X108.224 Y77.523 Z.723
G1 X105.125 Y79.935 Z.766
G1 X100.993 Y83.151 Z.796
G1 Z.2 F720
G1 E.7 F1500
M204 P500
G1 F2400
G1 X96.56 Y83.151 E.16848
G1 X96.56 Y82.371 E.02964
G1 X100.993 Y82.371 E.16848
G1 X100.993 Y83.082 E.02702
M204 P4000
G1 E-.7 F2100
M73 Q1 S25
G1 X100.993 Y87.194 Z.272 F18000
G1 Z.2 F720
G1 E.7 F1500
M204 P500
G1 F2400
G1 X96.56 Y87.194 E.16848
G1 X96.56 Y86.414 E.02964
G1 X100.993 Y86.414 E.16848
G1 X100.993 Y87.126 E.02706
M204 P4000
G1 E-.7 F2100
G1 X100.993 Y113.645 Z.663 F18000
G1 X100.993 Y117.572 Z.723
G1 X100.993 Y121.5 Z.766
G1 X100.993 Y123.586 Z.782
G1 Z.2 F720
G1 E.7 F1500
M204 P500
G1 F2400
G1 X96.56 Y123.586 E.16848
G1 X96.56 Y122.806 E.02964
G1 X100.993 Y122.806 E.16848
G1 X100.993 Y123.517 E.02702
M204 P4000
G1 E-.7 F2100
G1 X100.993 Y127.629 Z.272 F18000
G1 Z.2 F720
G1 E.7 F1500
M204 P500
G1 F2400
G1 X96.56 Y127.629 E.16848
G1 X96.56 Y126.849 E.02964
G1 X100.993 Y126.849 E.16848
G1 X100.993 Y127.561 E.02706
M204 P4000
G1 E-.7 F2100
G1 X125.384 Y117.152 Z.663 F18000
G1 X128.997 Y115.611 Z.723
G1 X132.609 Y114.069 Z.766
G1 X139.833 Y110.987 Z.8
G1 X154.758 Y104.618
G1 Z.2 F720
G1 E.7 F1500
M204 P500
;TYPE:Perimeter
;WIDTH:0.520097
G1 F2400
G1 X154.739 Y104.666 E.00205
;WIDTH:0.570036
G1 X154.691 Y104.786 E.00566
G1 X154.586 Y104.796 E.00462
;WIDTH:0.524057
G1 X154.481 Y104.807 E.00422
;WIDTH:0.478077
G1 X154.376 Y104.818 E.00382
;WIDTH:0.432098
G1 X154.271 Y104.828 E.00341
;WIDTH:0.386118
G1 X95.729 Y104.828 E1.67061
;WIDTH:0.432098
G1 X95.624 Y104.818 E.00341
;WIDTH:0.478077
G1 X95.519 Y104.807 E.00382
;WIDTH:0.524056
G1 X95.414 Y104.796 E.00422
;WIDTH:0.570035
G1 X95.309 Y104.786 E.00462
G1 X95.261 Y104.666 E.00566
;WIDTH:0.520097
G1 X95.213 Y104.546 E.00513
;WIDTH:0.470158
G1 X95.165 Y104.427 E.00456
;WIDTH:0.420219
G1 X95.117 Y104.307 E.00405
;WIDTH:0.37028
G1 X95.111 Y104.2 E.00292
;WIDTH:0.364381
G1 X95.111 Y101.757 E.0653
;WIDTH:0.405512
G1 X95.15 Y101.64 E.00372
;WIDTH:0.446643
G1 X95.19 Y101.522 E.00418
;WIDTH:0.487774
G1 X95.23 Y101.405 E.00457
;WIDTH:0.528905
G1 X95.269 Y101.288 E.00498
;WIDTH:0.570036
G1 X95.309 Y101.171 E.00542
G1 X95.414 Y101.16 E.00463
;WIDTH:0.524057
G1 X95.519 Y101.149 E.00422
;WIDTH:0.478078
G1 X95.624 Y101.139 E.00382
;WIDTH:0.432099
G1 X95.729 Y101.128 E.00342
;WIDTH:0.38612
G1 X154.271 Y101.128 E1.67062
;WIDTH:0.4321
G1 X154.376 Y101.139 E.00342
M73 P1 R20
;WIDTH:0.478079
G1 X154.481 Y101.149 E.00382
;WIDTH:0.524058
G1 X154.586 Y101.16 E.00422
;WIDTH:0.570037
G1 X154.691 Y101.171 E.00463
G1 X154.731 Y101.288 E.00542
;WIDTH:0.528906
G1 X154.77 Y101.405 E.00498
;WIDTH:0.487775
G1 X154.81 Y101.522 E.00457
;WIDTH:0.446643
G1 X154.85 Y101.64 E.00418
;WIDTH:0.405512
G1 X154.889 Y101.757 E.00372
;WIDTH:0.36438
G1 X154.889 Y104.2 E.0653
;WIDTH:0.370278
G1 X154.883 Y104.307 E.00292
;WIDTH:0.420218
G1 X154.835 Y104.427 E.00405
;WIDTH:0.470157
G1 X154.787 Y104.546 E.00456
;WIDTH:0.520097
G1 X154.781 Y104.562 E.00068
M204 P4000
G1 X154.415 Y104.336 F18000
M204 P500
;TYPE:External perimeter
;WIDTH:0.499999
G1 F2400
G1 X154.348 Y104.415 E.00394
G1 X154.271 Y104.428 E.00297
G1 X95.729 Y104.428 E2.22496
G1 X95.596 Y104.386 E.0053
G1 X95.5 Y104.2 E.00796
G1 X95.5 Y101.757 E.09285
G1 X95.596 Y101.571 E.00796
G1 X95.729 Y101.528 E.00531
G1 X154.271 Y101.528 E2.22496
G1 X154.404 Y101.571 E.00531
G1 X154.5 Y101.757 E.00796
G1 X154.497 Y104.239 E.09433
G1 X154.454 Y104.29 E.00254
M204 P4000
G1 X154.076 Y104.42 F18000
G1 E-.7 F2100
G1 X127.625 Y106.327 Z.663 F18000
G1 X123.708 Y106.609 Z.723
G1 X119.791 Y106.892 Z.766
G1 X111.956 Y107.456 Z.8
G1 X95.242 Y108.661
G1 Z.2 F720
G1 E.7 F1500
M204 P500
;TYPE:Perimeter
;WIDTH:0.520097
G1 F2400
G1 X95.213 Y108.59 E.00304
;WIDTH:0.470158
G1 X95.165 Y108.47 E.00459
;WIDTH:0.420219
G1 X95.117 Y108.35 E.00405
;WIDTH:0.37028
G1 X95.111 Y108.243 E.00292
;WIDTH:0.364381
G1 X95.111 Y105.8 E.0653
;WIDTH:0.405512
G1 X95.15 Y105.683 E.00372
;WIDTH:0.446643
G1 X95.19 Y105.566 E.00415
;WIDTH:0.487774
G1 X95.23 Y105.449 E.00457
;WIDTH:0.528905
G1 X95.269 Y105.332 E.00498
;WIDTH:0.570035
G1 X95.309 Y105.214 E.00546
G1 X95.414 Y105.204 E.00462
;WIDTH:0.524056
G1 X95.519 Y105.193 E.00422
;WIDTH:0.478077
G1 X95.624 Y105.182 E.00382
;WIDTH:0.432098
G1 X95.729 Y105.172 E.00341
;WIDTH:0.386118
G1 X154.271 Y105.172 E1.67061
;WIDTH:0.432098
G1 X154.376 Y105.182 E.00341
M73 P2 R20
;WIDTH:0.478077
G1 X154.481 Y105.193 E.00382
;WIDTH:0.524057
G1 X154.586 Y105.204 E.00422
;WIDTH:0.570036
G1 X154.691 Y105.214 E.00462
G1 X154.731 Y105.332 E.00546
;WIDTH:0.528905
G1 X154.77 Y105.449 E.00498
;WIDTH:0.487774
G1 X154.81 Y105.566 E.00457
;WIDTH:0.446643
G1 X154.85 Y105.683 E.00415
;WIDTH:0.405512
G1 X154.889 Y105.8 E.00372
;WIDTH:0.36438
G1 X154.889 Y108.243 E.0653
;WIDTH:0.370278
G1 X154.883 Y108.35 E.00292
;WIDTH:0.420218
G1 X154.835 Y108.47 E.00405
;WIDTH:0.470158
G1 X154.787 Y108.59 E.00459
;WIDTH:0.520098
G1 X154.739 Y108.709 E.00509
;WIDTH:0.570037
G1 X154.691 Y108.829 E.00566
G1 X154.586 Y108.84 E.00463
;WIDTH:0.524058
G1 X154.481 Y108.851 E.00422
;WIDTH:0.478079
G1 X154.376 Y108.861 E.00382
;WIDTH:0.4321
G1 X154.271 Y108.872 E.00342
;WIDTH:0.38612
G1 X95.729 Y108.872 E1.67062
;WIDTH:0.432099
G1 X95.624 Y108.861 E.00342
;WIDTH:0.478078
G1 X95.519 Y108.851 E.00382
;WIDTH:0.524057
G1 X95.414 Y108.84 E.00422
;WIDTH:0.570036
G1 X95.309 Y108.829 E.00463
G1 X95.264 Y108.717 E.00529
M204 P4000
G1 X95.567 Y108.373 F18000
M204 P500
;TYPE:External perimeter
;WIDTH:0.499999
G1 F2400
G1 X95.5 Y108.243 E.00556
G1 X95.5 Y105.8 E.09285
G1 X95.596 Y105.614 E.00796
G1 X95.729 Y105.572 E.0053
G1 X154.271 Y105.572 E2.22496
G1 X154.404 Y105.614 E.0053
G1 X154.5 Y105.8 E.00796
G1 X154.5 Y108.243 E.09285
G1 X154.404 Y108.429 E.00796
G1 X154.271 Y108.472 E.00531
G1 X95.729 Y108.472 E2.22496
G1 X95.596 Y108.429 E.00531
M73 Q2 S25
G1 X95.594 Y108.427 E.00011
M204 P4000
G1 X95.51 Y108.036 F18000
G1 E-.7 F2100
G1 X122.022 Y108.662 Z.663 F18000
G1 X125.948 Y108.755 Z.723
G1 X129.874 Y108.848 Z.766
G1 X137.727 Y109.033 Z.8
G1 X154.751 Y109.435
G1 Z.2 F720
G1 E.7 F1500
M204 P500
;TYPE:Perimeter
;WIDTH:0.528906
G1 F2400
G1 X154.77 Y109.492 E.00243
;WIDTH:0.487775
G1 X154.81 Y109.609 E.00457
;WIDTH:0.446643
G1 X154.85 Y109.727 E.00418
;WIDTH:0.405512
G1 X154.889 Y109.844 E.00372
;WIDTH:0.36438
G1 X154.889 Y112.287 E.0653
;WIDTH:0.370278
G1 X154.883 Y112.394 E.00292
;WIDTH:0.420218
G1 X154.835 Y112.514 E.00405
;WIDTH:0.470157
G1 X154.787 Y112.633 E.00456
;WIDTH:0.520097
G1 X154.739 Y112.753 E.00513
;WIDTH:0.570036
G1 X154.691 Y112.873 E.00566
G1 X154.586 Y112.883 E.00462
;WIDTH:0.524057
G1 X154.481 Y112.894 E.00422
;WIDTH:0.478077
G1 X154.376 Y112.905 E.00382
;WIDTH:0.432098
G1 X154.271 Y112.915 E.00341
;WIDTH:0.386118
G1 X95.729 Y112.915 E1.67061
;WIDTH:0.432098
G1 X95.624 Y112.905 E.00341
;WIDTH:0.478077
G1 X95.519 Y112.894 E.00382
;WIDTH:0.524056
G1 X95.414 Y112.883 E.00422
;WIDTH:0.570035
G1 X95.309 Y112.873 E.00462
G1 X95.261 Y112.753 E.00566
;WIDTH:0.520097
G1 X95.213 Y112.633 E.00513
;WIDTH:0.470158
G1 X95.165 Y112.514 E.00456
;WIDTH:0.420219
G1 X95.117 Y112.394 E.00405
;WIDTH:0.37028
G1 X95.111 Y112.287 E.00292
;WIDTH:0.364381
G1 X95.111 Y109.844 E.0653
;WIDTH:0.405512
G1 X95.15 Y109.727 E.00372
;WIDTH:0.446643
G1 X95.19 Y109.609 E.00418
;WIDTH:0.487774
G1 X95.23 Y109.492 E.00457
;WIDTH:0.528905
G1 X95.269 Y109.375 E.00498
;WIDTH:0.570036
G1 X95.309 Y109.258 E.00542
G1 X95.414 Y109.247 E.00463
;WIDTH:0.524057
G1 X95.519 Y109.236 E.00422
;WIDTH:0.478078
G1 X95.624 Y109.226 E.00382
;WIDTH:0.432099
G1 X95.729 Y109.215 E.00342
;WIDTH:0.38612
G1 X154.271 Y109.215 E1.67062
;WIDTH:0.4321
G1 X154.376 Y109.226 E.00342
;WIDTH:0.478079
G1 X154.481 Y109.236 E.00382
;WIDTH:0.524058
G1 X154.586 Y109.247 E.00422
;WIDTH:0.570037
G1 X154.691 Y109.258 E.00463
G1 X154.731 Y109.375 E.00542
;WIDTH:0.528906
G1 X154.732 Y109.379 E.00017
M204 P4000
G1 X154.433 Y109.714 F18000
M204 P500
;TYPE:External perimeter
;WIDTH:0.499999
G1 F2400
G1 X154.5 Y109.844 E.00556
G1 X154.497 Y112.326 E.09433
G1 X154.348 Y112.502 E.00876
G1 X154.271 Y112.515 E.00297
G1 X95.729 Y112.515 E2.22496
G1 X95.596 Y112.473 E.0053
G1 X95.5 Y112.287 E.00796
G1 X95.5 Y109.844 E.09285
G1 X95.596 Y109.658 E.00796
G1 X95.729 Y109.615 E.00531
G1 X154.271 Y109.615 E2.22496
G1 X154.404 Y109.658 E.00531
G1 X154.406 Y109.66 E.00011
M204 P4000
G1 X154.49 Y110.051 F18000
G1 E-.7 F2100
G1 X128.564 Y104.473 Z.663 F18000
G1 X124.724 Y103.647 Z.723
G1 X120.885 Y102.821 Z.766
G1 X113.206 Y101.169 Z.8
G1 X95.249 Y97.305
G1 Z.2 F720
G1 E.7 F1500
M204 P500
;TYPE:Perimeter
;WIDTH:0.528906
G1 F2400
G1 X95.269 Y97.245 E.00256
;WIDTH:0.570037
G1 X95.309 Y97.127 E.00546
G1 X95.414 Y97.117 E.00462
;WIDTH:0.524058
G1 X95.519 Y97.106 E.00422
;WIDTH:0.478079
G1 X95.624 Y97.095 E.00382
;WIDTH:0.4321
G1 X95.729 Y97.085 E.00341
;WIDTH:0.386121
G1 X154.271 Y97.085 E1.67063
;WIDTH:0.4321
G1 X154.376 Y97.095 E.00341
M73 P3 R20
;WIDTH:0.478079
G1 X154.481 Y97.106 E.00382
;WIDTH:0.524058
G1 X154.586 Y97.117 E.00422
;WIDTH:0.570037
G1 X154.691 Y97.127 E.00462
G1 X154.731 Y97.245 E.00546
;WIDTH:0.528906
G1 X154.77 Y97.362 E.00498
;WIDTH:0.487775
G1 X154.81 Y97.479 E.00457
;WIDTH:0.446643
G1 X154.85 Y97.596 E.00415
;WIDTH:0.405512
G1 X154.889 Y97.713 E.00372
;WIDTH:0.36438
G1 X154.889 Y100.156 E.0653
;WIDTH:0.370278
G1 X154.883 Y100.264 E.00294
;WIDTH:0.420218
G1 X154.835 Y100.383 E.00403
;WIDTH:0.470158
G1 X154.787 Y100.503 E.00459
;WIDTH:0.520098
G1 X154.739 Y100.623 E.00513
;WIDTH:0.570037
G1 X154.691 Y100.742 E.00562
G1 X154.586 Y100.753 E.00463
;WIDTH:0.524058
G1 X154.481 Y100.764 E.00422
;WIDTH:0.478079
G1 X154.376 Y100.774 E.00382
;WIDTH:0.4321
G1 X154.271 Y100.785 E.00342
;WIDTH:0.38612
G1 X95.729 Y100.785 E1.67062
;WIDTH:0.432099
G1 X95.624 Y100.774 E.00342
;WIDTH:0.478078
G1 X95.519 Y100.764 E.00382
;WIDTH:0.524057
G1 X95.414 Y100.753 E.00422
;WIDTH:0.570036
G1 X95.309 Y100.742 E.00463
G1 X95.261 Y100.623 E.00562
;WIDTH:0.520097
G1 X95.213 Y100.503 E.00513
;WIDTH:0.470158
G1 X95.165 Y100.383 E.00459
;WIDTH:0.420219
G1 X95.117 Y100.264 E.00403
;WIDTH:0.37028
G1 X95.111 Y100.156 E.00294
;WIDTH:0.364381
G1 X95.111 Y97.713 E.0653
;WIDTH:0.405513
G1 X95.15 Y97.596 E.00372
;WIDTH:0.446644
G1 X95.19 Y97.479 E.00415
;WIDTH:0.487775
G1 X95.23 Y97.362 E.00457
M204 P4000
G1 X95.567 Y97.583 F18000
M204 P500
;TYPE:External perimeter
;WIDTH:0.499999
G1 F2400
G1 X95.596 Y97.527 E.0024
G1 X95.729 Y97.485 E.0053
G1 X154.271 Y97.485 E2.22496
G1 X154.404 Y97.527 E.0053
G1 X154.5 Y97.713 E.00796
G1 X154.5 Y100.156 E.09285
G1 X154.404 Y100.342 E.00796
G1 X154.271 Y100.385 E.00531
G1 X95.729 Y100.385 E2.22496
G1 X95.596 Y100.342 E.00531
M73 Q3 S25
G1 X95.5 Y100.156 E.00796
G1 X95.5 Y97.713 E.09285
G1 X95.539 Y97.637 E.00325
M204 P4000
G1 X95.912 Y97.49 F18000
G1 E-.7 F2100
G1 X122.363 Y95.589 Z.663 F18000
G1 X126.28 Y95.308 Z.723
G1 X130.197 Y95.026 Z.766
G1 X138.032 Y94.463 Z.8
G1 X154.751 Y93.261
G1 Z.2 F720
G1 E.7 F1500
M204 P500
;TYPE:Perimeter
;WIDTH:0.528905
G1 F2400
G1 X154.77 Y93.318 E.00243
;WIDTH:0.487774
G1 X154.81 Y93.435 E.00457
;WIDTH:0.446643
G1 X154.85 Y93.553 E.00418
;WIDTH:0.405512
G1 X154.889 Y93.67 E.00372
;WIDTH:0.36438
G1 X154.889 Y96.113 E.0653
;WIDTH:0.370278
G1 X154.883 Y96.22 E.00292
;WIDTH:0.420218
G1 X154.835 Y96.34 E.00405
;WIDTH:0.470158
G1 X154.787 Y96.459 E.00456
;WIDTH:0.520098
G1 X154.739 Y96.579 E.00513
;WIDTH:0.570037
G1 X154.691 Y96.699 E.00566
G1 X154.625 Y96.709 E.00293
;WIDTH:0.525305
G1 X154.558 Y96.718 E.00271
;WIDTH:0.480572
G1 X154.492 Y96.728 E.00243
;WIDTH:0.435839
G1 X154.271 Y96.741 E.00723
;WIDTH:0.386121
G1 X95.729 Y96.741 E1.67063
;WIDTH:0.4321
G1 X95.624 Y96.731 E.00341
;WIDTH:0.478079
G1 X95.519 Y96.72 E.00382
;WIDTH:0.524058
G1 X95.414 Y96.709 E.00422
;WIDTH:0.570037
G1 X95.309 Y96.699 E.00462
G1 X95.261 Y96.579 E.00566
;WIDTH:0.520098
G1 X95.213 Y96.459 E.00513
;WIDTH:0.470159
G1 X95.165 Y96.34 E.00456
;WIDTH:0.42022
G1 X95.117 Y96.22 E.00405
;WIDTH:0.37028
G1 X95.111 Y96.113 E.00292
;WIDTH:0.364381
G1 X95.111 Y93.67 E.0653
;WIDTH:0.405512
G1 X95.15 Y93.553 E.00372
;WIDTH:0.446643
